X:151
T:RVW2/2/151 Cupid the Pretty Ploughboy
C:Mr. and Mrs. Verrall, Horsham, Sussex, 8 October 1904
L:1/4
Q:1/4=110
M:4/4
I:linebreak $
K:G
"^(Editorial suggestion " G | G B A c |[M:3/2] B3/2 A/ G2 A A |[M:4/4] F E (D/E/) F | G3 G |$ 
w: As|I walked out one|May mor- ning when the|may was all _ in|bloom I|
G B A c |[M:3/2] B3/2 A/ G2 A2 |[M:4/4] F E (D/E/) F | G3 G |$ G d d d |[M:3/2] c B A2 d2 | 
w: went in- to the|flower- y fields to|take the sweet _ per-|foom. I|went in- to the|flower- y fields to|
[M:4/4] c A B G | (F D2) G |$ G B A c |[M:3/2] (B3/2 A/) G2 (A3/2 G/) |[M:4/4] F E (D/E/) F | 
w: turn(?) my head a-|while _ Cu-|pid the pret- ty|plough- * boy he _|did my heart _ be-|
G2 z |] 
w: guile.|



